X:1
T:Charnwood, LM
T:Charnwood, LM
T:Charles Edward Moberly (1820-1893)
T:Public Domain Courtesy of the Cyber Hymnal™
C:Charles Edward Moberly (1820-1893)
Z:Public Domain
Z:Courtesy of the Cyber Hymnal™
%%score ( 1 2 ) ( 3 4 )
L:1/8
Q:1/4=110
M:4/4
K:E
V:1 treble 
V:2 treble 
V:3 bass 
V:4 bass 
V:1
 [EG]2 | [EF]2 [DF]2 [EB]2 [FB]2 | [Gc]2 [FB]2 [Ee]2 [Ge]2 | [Gc]2 [GB]2 (BA) [EG]2 | %4
 [DG]2 [D^^F]2 [DG]2 [EG]2 | [EG]2 [EF]2 [DF]2 (GA) | [=DB]2 [DE]2 [CE]2 E2 | %7
 [EA]2 [FA]2 (AG) (GF) | [B,E]2 [B,D]2 [B,E]2 |] %9
V:2
 x2 | x8 | x8 | x4 F2 x2 | x8 | x6 E2 | x6 E2 | x4 E2 C2 | x6 |] %9
V:3
 [E,B,]2 | [A,C]2 [A,B,]2 [G,B,]2 [D,A,]2 | [E,G,]2 [D,B,]2 [C,G,]2 [C,C]2 | %3
 [E,C]2 [^E,C]2 [F,C]2 [C,C]2 | [D,B,]2 [D,^A,]2 [G,,B,]2 [E,B,]2 | %5
 [C,^A,]2 [C,A,]2 B,2 ([G,B,][F,^A,]) | [E,G,]2 [G,B,]2 A,2 [G,B,]2 | %7
 [F,C]2 [D,B,]2 [E,B,]2 (B,A,) | [B,,G,]2 [B,,A,]2 [E,G,]2 |] %9
V:4
 x2 | x8 | x8 | x8 | x8 | x4 (B,,=A,) x2 | x4 A,2 x2 | x6 A,,2 | x6 |] %9

